docs/assets/img/details/locality/shopping-cart.svg

<?xml version="1.0" encoding="UTF-8"?>
<svg width="40px" height="40px" viewBox="0 0 40 40" version="1.1" xmlns="http://www.w3.org/2000/svg" xmlns:xlink="http://www.w3.org/1999/xlink">
    <title>shopping-cart</title>
    <g id="Welcome" stroke="none" stroke-width="1" fill="none" fill-rule="evenodd">
        <g id="lpw-featured-development-detailed-page-1.0" transform="translate(-750.000000, -10081.000000)" fill="#000000" fill-rule="nonzero">
            <g id="shopping-cart" transform="translate(750.000000, 10081.000000)">
                <path d="M12.7426164,31.373303 C10.4393792,31.373303 8.57232816,33.2914806 8.57232816,35.6575854 C8.57232816,38.0237813 10.4394678,39.9418679 12.7426164,39.9418679 C15.0458537,39.9418679 16.9129047,38.0236902 16.9129047,35.6575854 C16.9129933,33.2914806 15.0458537,31.373303 12.7426164,31.373303 Z M12.7426164,38.0378132 C11.4630599,38.0378132 10.4258093,36.9722096 10.4258093,35.6576765 C10.4258093,34.3431435 11.4630599,33.2775399 12.7426164,33.2775399 C14.0221729,33.2775399 15.0594235,34.3431435 15.0594235,35.6576765 C15.0595122,36.9722096 14.0221729,38.0378132 12.7426164,38.0378132 Z" id="Shape"></path>
                <path d="M30.3506874,31.373303 C28.0474501,31.373303 26.1803991,33.2914806 26.1803991,35.6575854 C26.1803991,38.0237813 28.0475388,39.9418679 30.3506874,39.9418679 C32.6538359,39.9418679 34.5209756,38.0236902 34.5209756,35.6575854 C34.5209756,33.2914806 32.6539246,31.373303 30.3506874,31.373303 Z M30.3506874,38.0378132 C29.0711308,38.0378132 28.0338803,36.9722096 28.0338803,35.6576765 C28.0338803,34.3431435 29.0711308,33.2775399 30.3506874,33.2775399 C31.6302439,33.2775399 32.6674945,34.3431435 32.6674945,35.6576765 C32.6675831,36.9722096 31.6302439,38.0378132 30.3506874,38.0378132 Z" id="Shape"></path>
                <path d="M39.7570732,6.38150342 C39.5640798,6.16492027 39.3000443,6.02933941 39.0156984,6.00063781 L8.85037694,5.57220957 L8.01631929,2.95398633 C7.42873614,1.20373576 5.83334812,0.0221412301 4.0313082,0.00255125285 L0.926740576,0.00255125285 C0.414900222,0.00255125285 0,0.428792711 0,0.954624146 C0,1.48045558 0.414900222,1.90669704 0.926740576,1.90669704 L4.0313082,1.90669704 C5.0389357,1.9295672 5.92620843,2.59425968 6.25552106,3.57284738 L12.1403104,21.8050114 L11.6769845,22.8998633 C11.1601774,24.2689749 11.315388,25.8099317 12.0940133,27.0413667 C12.8651885,28.2508428 14.1625721,28.9972665 15.5693126,29.0407289 L33.5944124,29.0407289 C34.1062528,29.0407289 34.521153,28.6144875 34.521153,28.088656 C34.521153,27.5628246 34.1062528,27.1365831 33.5944124,27.1365831 L15.5692239,27.1365831 C14.7748115,27.1161731 14.0435477,26.6868337 13.6230599,25.9940774 C13.2072727,25.309795 13.1218625,24.4667882 13.3913969,23.7090661 L13.7621286,22.8522096 L33.2699778,20.757631 C35.4127716,20.5151708 37.1754324,18.9140774 37.6720177,16.7589066 L39.8962306,7.19061503 C39.9964523,6.91507973 39.9432373,6.60519362 39.7570732,6.38150342 Z M35.8648337,16.3305695 C35.5639911,17.7179043 34.4174723,18.7412301 33.0383149,18.8535763 L13.7621286,20.9005011 L9.45277162,7.47635535 L37.8572949,7.9047836 L35.8648337,16.3305695 Z" id="Shape"></path>
            </g>
        </g>
    </g>
</svg>

<svg width="40" height="40" xmlns="http://www.w3.org/2000/svg"><path d="M12.743 31.373c-2.304 0-4.17 1.918-4.17 4.285 0 2.366 1.866 4.284 4.17 4.284 2.303 0 4.17-1.918 4.17-4.284 0-2.367-1.867-4.285-4.17-4.285zm0 6.665c-1.28 0-2.317-1.066-2.317-2.38 0-1.315 1.037-2.38 2.317-2.38 1.28 0 2.316 1.065 2.316 2.38 0 1.314-1.037 2.38-2.316 2.38zm17.607-6.665c-2.303 0-4.17 1.918-4.17 4.285 0 2.366 1.868 4.284 4.17 4.284 2.304 0 4.171-1.918 4.171-4.284 0-2.367-1.867-4.285-4.17-4.285zm0 6.665c-1.279 0-2.316-1.066-2.316-2.38 0-1.315 1.037-2.38 2.317-2.38 1.28 0 2.316 1.065 2.316 2.38 0 1.314-1.037 2.38-2.316 2.38zm9.407-31.656A1.148 1.148 0 0039.016 6L8.85 5.572l-.834-2.618C7.43 1.204 5.833.022 4.031.003H.927A.94.94 0 000 .955a.94.94 0 00.927.952H4.03c1.008.023 1.895.687 2.225 1.666l5.884 18.232-.463 1.095a4.678 4.678 0 00.417 4.141 4.285 4.285 0 003.475 2h18.025a.94.94 0 00.927-.952.94.94 0 00-.927-.952H15.57a2.351 2.351 0 01-1.946-1.143 2.68 2.68 0 01-.232-2.285l.371-.857 19.508-2.094c2.143-.243 3.905-1.844 4.402-4l2.224-9.567a.827.827 0 00-.139-.81zm-3.892 9.949c-.301 1.387-1.448 2.41-2.827 2.523L13.762 20.9 9.452 7.476l28.405.429-1.992 8.426z"/></svg>
